icons/u-disk-line.svg

<svg xmlns="http://www.w3.org/2000/svg" width="24" height="24" fill="none"><g clip-path="url(#a)"><g><path fill="#121212" d="M19 12H5V20H19V12ZM5 10V2H19V10H20C20.2652 10 20.5196 10.1054 20.7071 10.2929C20.8946 10.4804 21 10.7348 21 11V21C21 21.2652 20.8946 21.5196 20.7071 21.7071C20.5196 21.8946 20.2652 22 20 22H4C3.73478 22 3.48043 21.8946 3.29289 21.7071C3.10536 21.5196 3 21.2652 3 21V11C3 10.7348 3.10536 10.4804 3.29289 10.2929C3.48043 10.1054 3.73478 10 4 10H5ZM7 10H17V4H7V10ZM9 6H11V8H9V6ZM13 6H15V8H13V6Z"/></g></g><defs><clipPath id="a"><rect width="24" height="24" fill="white"/></clipPath></defs></svg>

<svg width="24" height="24" fill="none" xmlns="http://www.w3.org/2000/svg"><g clip-path="url(#a)"><path d="M19 12H5v8h14v-8ZM5 10V2h14v8h1a1 1 0 0 1 1 1v10a1 1 0 0 1-1 1H4a1 1 0 0 1-1-1V11a1 1 0 0 1 1-1h1Zm2 0h10V4H7v6Zm2-4h2v2H9V6Zm4 0h2v2h-2V6Z" /></g><defs><clipPath id="a"><path fill="#fff" d="M0 0h24v24H0z"/></clipPath></defs></svg>
